X: 1
T:Paddy Fahy's
R:hornpipe
D:Kevin Crawford: D Flute Album
Z:id:hn-hornpipe-74
M:C|
K:G
GBDG BAGF|EcEG ced2|(3Bcd gd (3Bcd Bd|cBAG (3fed (3cBA|
GBDG ~B3G|EcEG ced2|(3Bcd gd (3Bcd DF|AGGF ~G3z:|
|:d2gf gdBd|cdag f2ab|gd (3Bcd ecAG|FADA d3c|
(3Bcd Bd cBcA|Bdfa gfd2|(3Bcd gd (3Bcd DF|AGGF ~G3z:|
